X:1
T:Dainty fine bird - Gibbons
T:James Gibb editions
T:#
%%score { 1 | 2 } { 3 | 4 } 5
L:1/8
Q:1/4=100
M:2/2
K:C
V:1 treble nm="Soprano I" snm="S"
V:2 treble 
V:3 treble-8 nm="Tenor I" snm="T"
V:4 treble-8 
V:5 treble nm="Bass" snm="B"
V:1
"^Dainty fine bird" z8 | z4!mf! c4- | c2 BA e4 | e2 f4 e2 | %4
w: |Dain\-|* ty fine bird|that art en-|
 d2 c2"^Orlando Gibbons\n(1583-1625)" B4 |[M:2/2] z2!p! e2 g4- | g2 f2 e2 d2- | dc B2 (e2 d2- | %8
w: cag- ed there,|A- las,|* how like thine|* and my for\- *|
 dc c4) B2 | c2 e2 g4 | z2 e2 d2 c2- | cB A2 A2 ^G2 | A8 | z8 | z4!mf! d4 | f4 e4 | d4 z2 g2- | %17
w: * * * tunes|are, a- las,|how like thine|* and my for- tunes|are.||Both|pris 'ners|be; and|
 g2 e2 f3 e | d4 e4 | c4 d2 d2 | c4 z2 c2- | c2 B2 A2 A2 | G4 z2 g2- | gf e2 d2 c2 | B2 A2 A2 ^G2 | %25
w: * both sing- ing,|thus, and|both sing- ing,|thus, and|* both sing- ing,|thus Strive|* to please her that|hath im- pris- on'd|
 A4 z4 | z8 | z2!f! ef g2 d2 | e2 c2 c2 B2 | c3 B A4 | ^G6 A2 | B2 B2 A4- | A2 G2 ^F2 E2 | D8 | %34
w: us.||On- ly thus we|dif- fer, thou and|I, and I,|Thou liv'st|sing- ing, but|* I sing and|die,|
 z8 | z8 |"^dim." e6 d2 | c2 c2 B4- | B2 A2 ^G2 ^F2 | E6[Q:1/4=99] ^F2 | %40
w: ||thou liv'st|sing- ing, but|* I sing and|die, I|
[Q:1/4=96] ^G4[Q:1/4=93] A4 |[Q:1/4=88] B6[Q:1/4=85] B2 |!pp![Q:1/4=85] !fermata!^c8 |] %43
w: sing and|die, and|die.|
V:2
 z4!mf! c4- | c2 BA e4- | e2 (dc) B4 | c2 (A2- AB) c2 | B2 A2 ^G4 |[M:2/2] z4 z2!p! e2 | g6 f2 | %7
w: Dain\-|* ty fine bird,|* fine * bird|that art * * en-|cag- ed there,|A-|las, how|
 e2 d3 c B2 | e4 d4 | c4 z2 e2 | g4 z4 | z8 | z4!mf! d4 | f4 e4 | d6 (cB) | (A2 B2) (c4- | %16
w: like thine and my|for- tunes|are, a-|las.||Both|pris- 'ners|be; and *|both * sing\-|
 c2 BA) B4 | c4 A2 c2- | c2 B2 c4 | z8 | z8 | z4 z2 d2- | dc B2 A2 G2 | d2 g3 (f e2) | d2 f2 e3 d | %25
w: * * * ing,|thus, both sing\-|* ing, thus|||Strive|* to please her, to|please her that *|hath im- pris- on'd|
 ^c2 z2 z4 | z8 | z8 | z2!f! ef g2 d2 | f2 e2 e2 d2 | e2 (dc) B2 c2 | d6 c2 | B2 B2"^dim." A4- | %33
w: us.|||On- ly thus we|dif- fer, thou and|I, we * dif- fer,|Thou liv'st|sing- ing, but|
 A2 G2 ^F2 E2 | D6 E2 | ^F2 (G2 A4) | ^G4 B4- | B2 A2 ^G2 ^F2 | E8 | z8 | z2 B2 c2 d2 |!pp! e8- | %42
w: * I sing and|die, I|sing and *|die, but|* I sing and|die,||I sing and|die.|
 !fermata!e8 |] %43
w: |
V:3
!mf! c6 BA | e6 ^f2 | ^g2 (a4 g2) | a3 a d2 (ef) | g2 (cd) e4 |[M:2/2][K:treble-8] z2!p! g2 e2 c2 | %6
w: Dain- ty fine|bird, dain-|ty fine *|bird that art en\- *|cag- ed * there,|A- las, a-|
 c6 d2 | e2 g4 GA | (BG g2- gf) d2 | e2 c2 c4- | c2 e2 g2 c2- | cc d2 e2 e2 | e4!mf! (f2 g2) | %13
w: las, how|like thine and my|for\- * * * * tunes|are, a- las,|* how like thine|* and my for- tunes|are. Both *|
 a2 gf g2 e2 | f4 d4- | d2 d2 G4 | z8 | z8 | g6 e2 | (f3 e) d4 | e2 (c2- cd e2) | ^f2 g4 f2 | %22
w: pris- on- ers be; and|both sing\-|* ing, thus,|||and both|sing\- * ing,|thus, and * * *|both sing- ing,|
 g4 z4 | z8 | z8 | z2!f! fg a2 e2 | f2 e2 d2 f2 | e4 d4 | c4 z4 | z8 | z8 | z8 | z8 | %33
w: thus|||On- ly thus we|dif- fer, thou and|I, and|I,|||||
 z2"^dim." d4 c2 | B2 B2 A4- | A2 G2 ^F2 F2 | E8 | e6 d2 | c2 c2 B4- | B2 A2 ^G2 ^F2 | %40
w: Thou liv'st|sing- ing, but|* I sing and|die,|thou liv'st|sing- ing, but|* I sing and|
"^die," E6 ^F2 | ^G2 (A2 B4) |!pp! !fermata!A8 |] %43
w: * I|sing and *|die.|
V:4
 z8 |!mf! c6 BA | e8 | A2 d4 c2 | G2 A2 E4 |[M:2/2][K:treble-8] z2!p! c2 c3 d | e2 f2 (ge) a2 | %7
w: |Dain- ty fine|bird|that art en-|cag- ed there,|A- las, a-|las, how like * thine|
 g4 (g3 f) | e2 (dc) g4 | z4 z2 g2 | e2 c2 d2 e2- | ee A2 B2 B2 | ^c4!mf! d4 | d4 ^c4 | %14
w: and my *|for\-- tunes * are,|a-|las, how like thine|* and my for- tunes|are. Both|pris- 'ners|
 d4 (f2 g2) | (a2 gf g2) c2 | d8 | z8 | z4 c4 | A2 c4 B2 | c2 (A2- AB) c2 | d4 d4 | G4 d3 c | %23
w: be, both *|pris\- * * * 'ners|be;||and|both sing- ing,|thus, and * * both|sing- ing,|thus Strive to|
 (B2 c2) d2 G2 | d3 c BA B2 | A8 |!f! A2 c2 B2 A2 | G4 G4 | z4 z2 g2 | c2 c4 (BA) | B6 (AG) | %31
w: please * her that|hath im- pris- on- ed|us.|On- ly thus we|dif- fer,|on-|ly thus we *|dif- fer, *|
 ^F2 G2 A4 | d6 c2 | B2"^dim." B2 A4- | A2 G2 ^F2 E2 | D4 d4 | B3 (A ^G2 ^F2) | E8 | e6 d2 | %39
w: thou and I,|Thou liv'st|sing- ing, but|* I sing; and|die, I|sing and\- * *|die,|thou liv'st|
 c2 c2 B4- | B2 B2 A4- | A4 ^G4 |!pp! !fermata!A8 |] %43
w: sing- ing, but|* I sing|* and|die.|
V:5
 z8 | z8 | z8 | z8 | z8 |[M:2/2][K:bass] z2!p! C,2 C,4- | C,2 D,2 E,2 F,2 | G,4 G,4 | G,6 G,2 | %9
w: |||||A- las,|* how like thine|and my|for- tunes|
 C,2 C,2 C,4 | z2 C2 B,2 A,2- | A,G, F,2 E,2 E,2 | A,,4 z4 | z8 | z4!mf! D,4 | D,4 C,4 | G,8 | z8 | %18
w: are, a- las,|how like thine|* and my for- tunes|are.||Both|pris- 'ners|be;||
 z8 | z4 G,4 | E,2 F,4 E,2 | D,8 | z2 G,3 F, E,2 | D,2 C,2 B,,2 C,2 | D,2 D,2 E,4 | A,,2 D,4 ^C,2 | %26
w: |and|both sing- ing,|thus|Strive to please|her that hath im-|pris- on'd us,|im- pris- oned|
 D,2!f! E,F, G,2 D,2 | E,C, C4 B,2 | C2 A,2 G,4 | A,3 G, F,3 F, | E,4 E,4 | D,8 | D,8 | D,8 | %34
w: us. On- ly thus we|dif- fer, thou and|I, on- ly|thus we dif- fer,|thou and|I,|Thou|liv'st|
"^dim." D,8- | D,4 D,4 | E,8- | E,8 | E,8- | E,8 | E,8 | E,8 |!pp! !fermata!A,,8 |] %43
w: sing\-|* ing,|but||I||sing|and|die.|

